icons/renewable-energy-seal.svg

<svg width="120" height="75" viewBox="0 0 120 75" fill="currentColor" xmlns="http://www.w3.org/2000/svg">
<g clip-path="url(#clip0_4_2233)">
<path d="M83.5042 0.791092H0.595139V72.9203C0.595139 73.3118 0.892647 73.7032 1.38851 73.7032C1.88438 73.7032 2.18191 73.4096 2.18191 72.9203V2.25912H83.6033C102.843 2.25912 118.512 17.7224 118.512 36.7089V73.0182H14.0827C13.686 73.0182 13.2893 73.3117 13.2893 73.8011C13.2893 74.2904 13.5869 74.5841 14.0827 74.5841H120V36.8068C120 16.9394 103.636 0.791092 83.5042 0.791092Z" fill="#85BE4C"/>
<path d="M17.5535 58.7293H15.7684L13.5866 55.5975H12.2973V58.7293H10.7105V50.5084H14.975C16.3634 50.5084 17.6527 51.6828 17.6527 53.053C17.6527 54.521 16.6609 55.5975 15.3717 55.6954L17.5535 58.7293ZM14.7766 54.3252C15.6692 54.3252 16.0659 53.6402 16.0659 53.053C16.0659 52.4657 15.57 51.7806 14.975 51.7806H12.2973V54.3252H14.7766Z" fill="#85BE4C"/>
<path d="M24.2977 56.0869H19.7357C19.8349 57.0656 20.5291 57.5549 21.2233 57.5549C21.7192 57.5549 22.1159 57.3592 22.4134 56.8698H24.0002C23.5043 58.1421 22.4134 58.8272 21.1241 58.8272C19.5374 58.8272 18.0498 57.6528 18.0498 55.6954C18.0498 53.738 19.5374 52.5636 21.1241 52.5636C22.7109 52.5636 24.1985 53.738 24.1985 55.6954C24.2977 55.7933 24.2977 55.989 24.2977 56.0869ZM22.7109 55.0103C22.4134 54.2274 21.8183 53.8359 21.2233 53.8359C20.6283 53.8359 20.0332 54.2274 19.7357 55.0103H22.7109Z" fill="#85BE4C"/>
<path d="M30.7439 54.7167V58.7293H29.2563V54.8146C29.2563 54.3252 28.7604 53.8359 28.0662 53.8359C27.372 53.8359 26.8761 54.3252 26.8761 54.8146V58.7293H25.3885V52.6615H26.8761V53.4444C27.0745 53.053 27.4711 52.6615 28.2645 52.5636C29.2563 52.3679 30.7439 53.1508 30.7439 54.7167Z" fill="#85BE4C"/>
<path d="M37.7849 56.0869H33.2229C33.3221 57.0656 34.0163 57.5549 34.7105 57.5549C35.2064 57.5549 35.6031 57.3592 35.9006 56.8698H37.4874C36.9915 58.1421 35.9006 58.8272 34.6114 58.8272C33.0246 58.8272 31.537 57.6528 31.537 55.6954C31.537 53.738 33.0246 52.5636 34.6114 52.5636C36.1981 52.5636 37.6857 53.738 37.6857 55.6954C37.7849 55.7933 37.7849 55.989 37.7849 56.0869ZM36.2973 55.0103C35.9998 54.2274 35.4048 53.8359 34.8097 53.8359C34.2147 53.8359 33.6196 54.2274 33.3221 55.0103H36.2973Z" fill="#85BE4C"/>
<path d="M47.1074 52.6615L45.3223 58.7294H43.6363L42.6446 54.4232L41.6529 58.7294H39.9669L38.1818 52.6615H39.9669L40.8595 57.0656L41.752 52.6615H43.438L44.3306 57.0656L45.2231 52.6615H47.1074Z" fill="#85BE4C"/>
<path d="M52.7601 54.2274V58.7293H51.2725V57.8485C51.1733 58.24 50.6775 58.8272 49.6857 58.9251C48.1981 58.9251 47.4047 57.8485 47.4047 56.9677C47.4047 55.6954 48.3965 55.0104 49.6857 55.0104H50.5783C50.975 55.0104 51.1733 54.8146 51.1733 54.521C51.1733 54.0317 50.7766 53.8359 50.1816 53.8359C49.7849 53.8359 49.3882 54.1295 49.289 54.4231H47.8014C48.099 53.1508 49.1899 52.6615 50.1816 52.6615C51.2725 52.4657 52.7601 53.053 52.7601 54.2274ZM51.2725 55.7933C51.0742 55.8912 50.8758 55.8912 50.5783 55.8912H49.9832C49.5865 55.8912 48.9915 55.989 48.8923 56.6741C48.7932 57.1634 49.289 57.6528 49.9832 57.6528C50.6775 57.6528 51.2725 57.1634 51.2725 56.6741V55.7933Z" fill="#85BE4C"/>
<path d="M59.9008 55.7933C59.9008 57.6528 58.6115 58.9251 57.1239 58.9251C56.3305 58.9251 55.7355 58.3379 55.5371 57.8485V58.7293H54.0495V50.5084H55.5371V53.5423C55.8347 53.053 56.4297 52.6615 57.1239 52.6615C58.5124 52.6615 59.9008 53.8359 59.9008 55.7933ZM58.4132 55.7933C58.4132 54.8146 57.8181 53.9338 56.9256 53.9338C56.033 53.9338 55.438 54.7167 55.438 55.7933C55.438 56.8698 56.033 57.6528 56.9256 57.6528C57.8181 57.6528 58.4132 56.7719 58.4132 55.7933Z" fill="#85BE4C"/>
<path d="M60.8924 58.7293V50.5084H62.38V58.7293H60.8924Z" fill="#85BE4C"/>
<path d="M69.5204 56.0869H64.9585C65.0576 57.0656 65.7518 57.5549 66.4461 57.5549C66.9419 57.5549 67.3386 57.3592 67.6361 56.8698H69.2229C68.727 58.1421 67.6361 58.8272 66.3469 58.8272C64.7601 58.8272 63.2725 57.6528 63.2725 55.6954C63.2725 53.738 64.7601 52.5636 66.3469 52.5636C67.9337 52.5636 69.4213 53.738 69.4213 55.6954C69.5204 55.7933 69.5204 55.989 69.5204 56.0869ZM67.9337 55.0103C67.6361 54.2274 67.0411 53.8359 66.4461 53.8359C65.851 53.8359 65.256 54.2274 64.9585 55.0103H67.9337Z" fill="#85BE4C"/>
<path d="M75.471 51.7806V53.9338H79.6363V55.206H75.471V57.3592H80.033V58.6315H73.8842V50.4105H80.033V51.6828H75.471V51.7806Z" fill="#85BE4C"/>
<path d="M86.5784 54.7167V58.7293H85.0908V54.8146C85.0908 54.3252 84.5949 53.8359 83.9007 53.8359C83.2065 53.8359 82.7106 54.3252 82.7106 54.8146V58.7293H81.223V52.6615H82.7106V53.4444C82.9089 53.053 83.3056 52.6615 84.099 52.5636C84.9916 52.3679 86.5784 53.1508 86.5784 54.7167Z" fill="#85BE4C"/>
<path d="M93.6199 56.0869H89.0579C89.157 57.0656 89.8513 57.5549 90.5455 57.5549C91.0413 57.5549 91.438 57.3592 91.7356 56.8698H93.3223C92.8265 58.1421 91.7356 58.8272 90.4463 58.8272C88.8595 58.8272 87.3719 57.6528 87.3719 55.6954C87.3719 53.738 88.8595 52.5636 90.4463 52.5636C92.0331 52.5636 93.5207 53.738 93.5207 55.6954C93.6198 55.7933 93.6199 55.989 93.6199 56.0869ZM92.0331 55.0103C91.7355 54.2274 91.1405 53.8359 90.5455 53.8359C89.9504 53.8359 89.3554 54.2274 89.0579 55.0103H92.0331Z" fill="#85BE4C"/>
<path d="M98.2809 52.6614V54.0316C98.2809 54.0316 97.9834 53.9338 97.4875 53.9338C96.5949 53.9338 96.1983 54.4231 96.1983 55.0103V58.7293H94.7107V52.6614H96.1983V53.5423C96.3966 53.0529 96.8925 52.4657 97.4875 52.4657C97.6859 52.5636 97.9834 52.5636 98.2809 52.6614Z" fill="#85BE4C"/>
<path d="M104.628 58.8272C104.628 60.0016 103.24 60.8825 101.752 60.8825C100.265 60.8825 98.8762 60.0016 98.8762 58.8272C98.8762 58.7294 98.8762 58.7293 98.8762 58.6315H100.364V58.7293C100.364 59.2187 101.058 59.5123 101.851 59.5123C102.645 59.5123 103.24 59.1208 103.24 58.6315C103.24 58.1421 102.942 57.6528 101.851 57.6528C99.7687 57.6528 98.8762 56.4784 98.8762 55.2061C98.8762 53.8359 100.364 52.6615 101.851 52.6615C102.149 52.6615 102.546 52.7594 102.843 52.8572L103.835 51.8785L104.827 52.8572L104.132 53.5423C104.628 54.0317 104.926 54.6189 104.926 55.2061C104.926 56.1848 104.331 56.8698 103.636 57.1634C104.033 57.457 104.628 58.0443 104.628 58.8272ZM103.24 55.2061C103.24 54.6189 102.546 53.9338 101.752 53.9338C100.86 53.9338 100.265 54.521 100.265 55.2061C100.265 55.989 100.76 56.5762 101.752 56.5762C102.645 56.5762 103.24 55.8911 103.24 55.2061Z" fill="#85BE4C"/>
<path d="M111.471 52.6615L108.595 59.9038C108.298 60.5889 108 60.8825 107.008 60.8825H106.314V59.5123H106.909C107.107 59.5123 107.306 59.4144 107.405 59.2187L107.603 58.7294L105.223 52.6615H106.81L108.298 56.772L109.785 52.6615H111.471Z" fill="#85BE4C"/>
<path d="M20.2312 18.1138V43.1682H15.4709V26.2369C14.2808 26.5305 12.5948 26.8241 10.2147 26.8241V22.8115C15.57 22.8115 16.0659 19.7776 16.0659 18.1138H20.2312Z" stroke="#85BE4C" stroke-width="1.4" stroke-miterlimit="10"/>
<path d="M43.1405 30.8368C43.1405 38.0791 40.0661 43.9512 33.719 43.9512C27.3719 43.9512 24.2975 38.0791 24.2975 30.8368C24.2975 23.5945 27.3719 17.7224 33.719 17.7224C40.1653 17.7224 43.1405 23.5945 43.1405 30.8368ZM38.3801 30.8368C38.3801 26.0412 36.7934 21.735 33.8182 21.735C30.843 21.735 29.2562 26.0412 29.2562 30.8368C29.2562 35.6323 30.843 39.9385 33.8182 39.9385C36.7934 39.9385 38.3801 35.6323 38.3801 30.8368Z" stroke="#85BE4C" stroke-width="1.4" stroke-miterlimit="10"/>
<path d="M65.8511 30.8368C65.8511 38.0791 62.7767 43.9512 56.4296 43.9512C50.0825 43.9512 47.0081 38.0791 47.0081 30.8368C47.0081 23.5945 50.0825 17.7224 56.4296 17.7224C62.8759 17.7224 65.8511 23.5945 65.8511 30.8368ZM61.0908 30.8368C61.0908 26.0412 59.504 21.735 56.5288 21.735C53.5536 21.735 51.9668 26.0412 51.9668 30.8368C51.9668 35.6323 53.5536 39.9385 56.5288 39.9385C59.504 39.9385 61.0908 35.6323 61.0908 30.8368Z" stroke="#85BE4C" stroke-width="1.4" stroke-miterlimit="10"/>
<path d="M77.5537 29.5645C74.281 29.5645 71.4049 27.2156 71.4049 23.203C71.4049 19.1904 74.3801 16.8416 77.5537 16.8416C80.7272 16.8416 83.7024 19.1904 83.7024 23.203C83.6032 27.2156 80.7272 29.5645 77.5537 29.5645ZM97.0908 17.1352L78.3471 42.2874H74.0826L92.8264 17.1352H97.0908ZM77.5537 26.8242C79.0413 26.8242 80.5289 25.6497 80.5289 23.203C80.5289 20.952 79.1405 19.6797 77.5537 19.5819C76.0661 19.5819 74.5785 20.8542 74.5785 23.203C74.5785 25.6497 75.9669 26.8242 77.5537 26.8242ZM99.8677 35.926C99.8677 39.9386 96.9917 42.2874 93.7189 42.2874C90.4462 42.2874 87.5702 39.9386 87.5702 35.926C87.5702 31.9133 90.5454 29.5645 93.7189 29.5645C96.8925 29.5645 99.8677 31.9133 99.8677 35.926ZM96.6941 35.926C96.6941 33.675 95.3057 32.4027 93.7189 32.3048C92.2313 32.3048 90.7437 33.5771 90.7437 35.926C90.7437 38.3727 92.2313 39.5471 93.7189 39.5471C95.2065 39.5471 96.6941 38.3727 96.6941 35.926Z" stroke="#85BE4C" stroke-width="1.4" stroke-miterlimit="10"/>
</g>
<defs>
<clipPath id="clip0_4_2233">
<rect width="120" height="75" fill="white"/>
</clipPath>
</defs>
</svg>

<svg xmlns="http://www.w3.org/2000/svg" width="16" height="16" fill="currentColor" class="si si-renewable-energy-seal" viewBox="0 0 16 16">
  <g clip-path="url(#a)">
    <path d="M83.504.791H.595v72.13c0 .39.298.782.794.782.495 0 .793-.293.793-.783V2.26h81.421c19.24 0 34.909 15.462 34.909 34.449v36.31H14.082c-.396 0-.793.293-.793.782s.298.783.794.783H120V36.807C120 16.939 103.636.79 83.504.79"/>
    <path d="M17.554 58.73h-1.786l-2.181-3.133h-1.29v3.132H10.71v-8.22h4.265c1.388 0 2.678 1.174 2.678 2.544 0 1.468-.992 2.544-2.281 2.642zm-2.777-4.405c.892 0 1.289-.685 1.289-1.272s-.496-1.272-1.091-1.272h-2.678v2.544zm9.521 1.762h-4.562c.099.979.793 1.468 1.487 1.468.496 0 .893-.196 1.19-.685H24c-.496 1.272-1.587 1.957-2.876 1.957-1.587 0-3.074-1.174-3.074-3.132 0-1.957 1.487-3.131 3.074-3.131s3.075 1.174 3.075 3.131c.099.098.099.294.099.392M22.71 55.01c-.298-.783-.893-1.174-1.488-1.174s-1.19.391-1.487 1.174zm8.034-.293v4.012h-1.488v-3.914c0-.49-.496-.98-1.19-.98s-1.19.49-1.19.98v3.914h-1.488v-6.068h1.488v.783c.198-.391.595-.783 1.389-.88.991-.196 2.479.587 2.479 2.153m7.041 1.37h-4.562c.1.979.793 1.468 1.488 1.468.495 0 .892-.196 1.19-.685h1.586c-.495 1.272-1.586 1.957-2.876 1.957-1.586 0-3.074-1.174-3.074-3.132 0-1.957 1.488-3.131 3.074-3.131 1.587 0 3.075 1.174 3.075 3.131.099.098.099.294.099.392m-1.488-1.077c-.297-.783-.892-1.174-1.487-1.174s-1.19.391-1.488 1.174zm10.81-2.348-1.785 6.067h-1.686l-.991-4.306-.992 4.306h-1.686l-1.785-6.068h1.785l.892 4.405.893-4.405h1.686l.893 4.405.892-4.405zm5.653 1.565v4.502h-1.487v-.88c-.1.391-.596.978-1.587 1.076-1.488 0-2.281-1.076-2.281-1.957 0-1.273.992-1.958 2.28-1.958h.893c.397 0 .595-.195.595-.489 0-.49-.396-.685-.991-.685-.397 0-.794.294-.893.587h-1.488c.298-1.272 1.389-1.762 2.38-1.762 1.092-.195 2.58.392 2.58 1.566m-1.487 1.566c-.199.098-.397.098-.695.098h-.595c-.396 0-.991.098-1.09.783-.1.49.396.979 1.09.979s1.29-.49 1.29-.979zm8.626 0c0 1.86-1.288 3.132-2.776 3.132-.794 0-1.389-.587-1.587-1.076v.88H54.05v-8.22h1.487v3.033c.298-.489.893-.88 1.587-.88 1.388 0 2.777 1.174 2.777 3.131m-1.487 0c0-.978-.595-1.86-1.487-1.86s-1.488.784-1.488 1.86.595 1.86 1.488 1.86c.892 0 1.487-.881 1.487-1.86m2.478 2.937v-8.222h1.488v8.221zm8.628-2.643h-4.56c.099.979.793 1.468 1.487 1.468.496 0 .893-.196 1.19-.685h1.587c-.496 1.272-1.587 1.957-2.876 1.957-1.587 0-3.074-1.174-3.074-3.132 0-1.957 1.487-3.131 3.074-3.131s3.074 1.174 3.074 3.131c.1.098.1.294.1.392m-1.586-1.077c-.298-.783-.893-1.174-1.488-1.174s-1.19.391-1.487 1.174zm7.535-3.23v2.154h4.165v1.272h-4.165v2.153h4.562v1.273h-6.149V50.41h6.149v1.272h-4.562zm11.107 2.937v4.012h-1.487v-3.914c0-.49-.496-.98-1.19-.98s-1.19.49-1.19.98v3.914h-1.488v-6.068h1.488v.783c.198-.391.595-.783 1.388-.88.893-.196 2.48.587 2.48 2.153m7.041 1.37h-4.562c.099.979.793 1.468 1.487 1.468.496 0 .893-.196 1.19-.685h1.587c-.496 1.272-1.586 1.957-2.876 1.957-1.587 0-3.074-1.174-3.074-3.132 0-1.957 1.487-3.131 3.074-3.131s3.075 1.174 3.075 3.131c.099.098.099.294.099.392m-1.587-1.077c-.297-.783-.892-1.174-1.487-1.174s-1.19.391-1.488 1.174zm6.247-2.349v1.37s-.297-.097-.793-.097c-.892 0-1.289.49-1.289 1.076v3.72h-1.487v-6.07h1.487v.881c.199-.49.695-1.076 1.29-1.076.198.098.495.098.793.195m6.347 6.167c0 1.175-1.388 2.056-2.876 2.056s-2.876-.881-2.876-2.056v-.195h1.488v.097c0 .49.694.783 1.487.783s1.389-.391 1.389-.88c0-.49-.298-.98-1.389-.98-2.082 0-2.975-1.174-2.975-2.446 0-1.37 1.488-2.545 2.975-2.545.298 0 .695.098.992.196l.992-.978.992.978-.695.685c.496.49.794 1.077.794 1.664 0 .979-.595 1.664-1.29 1.957.397.294.992.881.992 1.664m-1.388-3.62c0-.588-.694-1.273-1.488-1.273-.892 0-1.487.587-1.487 1.272 0 .783.495 1.37 1.487 1.37.893 0 1.488-.685 1.488-1.37m8.231-2.544-2.876 7.242c-.297.685-.595.978-1.587.978h-.694v-1.37h.595a.55.55 0 0 0 .496-.293l.198-.49-2.38-6.068h1.587l1.488 4.111 1.487-4.11z"/>
    <path stroke="#85BE4C" stroke-miterlimit="10" stroke-width="1.4" d="M20.231 18.114v25.054h-4.76V26.237c-1.19.294-2.876.587-5.256.587v-4.013c5.355 0 5.85-3.033 5.85-4.697zM43.14 30.837c0 7.242-3.074 13.114-9.421 13.114s-9.422-5.872-9.422-13.114 3.075-13.115 9.422-13.115c6.446 0 9.422 5.872 9.422 13.115Zm-4.76 0c0-4.796-1.587-9.102-4.562-9.102s-4.562 4.306-4.562 9.102c0 4.795 1.587 9.101 4.562 9.101s4.562-4.306 4.562-9.101Zm27.471 0c0 7.242-3.074 13.114-9.421 13.114s-9.422-5.872-9.422-13.114 3.075-13.115 9.422-13.115c6.446 0 9.421 5.872 9.421 13.115Zm-4.76 0c0-4.796-1.587-9.102-4.562-9.102s-4.562 4.306-4.562 9.102c0 4.795 1.587 9.101 4.562 9.101s4.562-4.306 4.562-9.101Zm16.463-1.272c-3.273 0-6.15-2.35-6.15-6.362s2.976-6.361 6.15-6.361c3.173 0 6.148 2.348 6.148 6.361-.099 4.013-2.975 6.361-6.148 6.361Zm19.537-12.43L78.347 42.287h-4.264l18.743-25.152zm-19.537 9.69c1.487 0 2.975-1.175 2.975-3.622 0-2.251-1.388-3.523-2.975-3.621-1.488 0-2.975 1.272-2.975 3.621 0 2.447 1.388 3.621 2.975 3.621Zm22.314 9.101c0 4.013-2.876 6.361-6.15 6.361-3.272 0-6.148-2.348-6.148-6.361s2.975-6.362 6.149-6.362 6.149 2.35 6.149 6.362Zm-3.174 0c0-2.251-1.388-3.523-2.975-3.621-1.488 0-2.975 1.272-2.975 3.621 0 2.447 1.487 3.621 2.975 3.621s2.975-1.174 2.975-3.621Z"/>
  </g>
  <defs>
    <clipPath id="a">
      <path d="M0 0h120v75H0z"/>
    </clipPath>
  </defs>
</svg>
